X: 43464
T: Yellow Barber
R: reel
M: 4/4
K: Dmajor
|:"D" A,<D A,<D D/B,/|"D" A,/B,/D/E/ F/D/E/D/|"A" A, E E E/F/|"A" G/F/E/G/ "D" F/D/D/E/|
"D" F<A F<A A/A/|"D" B/A/ F A d/e/|"D" f/g/f/e/ d/B/A/G/|1 ."A" F/D/E/C/ "D" D D/B,/:|2 . "A" F/D/E/C/ "D" D d/B/||
|:"D" A<d A<d B/B/|"D" A/B/d/e/ f/d/e/d/|"A" A<e A<e e/f/|"A" g/f/e/g/ "D" f/d/d/e/|
"D" f/g/f/e/ d/B/A/d/|"D" B/A/ F A d/e/|"D" f/g/f/e/ d/B/A/G/|1 ."A" F/D/E/C/ "D" D d/B/:|2 . "A" F/D/ E "D" D D/B,/||

